ERK
CUT[ACH SCHIFFMANN DU FEIN GUTER MANN]
REG[Europa, Mitteleuropa, Deutschland, Halle]
TRD[]
FKT[]
SIG[E0078A]
KEY[E0078A  08  F 2/4 3/4]
MEL[3  5333  322
    2  1356  6553  533
    3  5333  322
    2  1356  655
    3  5333  322
    4  3123  1_0
    3  5333  322
    2  1356  6553  533
    3  5333  322
    2  1356  655
    3  5333  322
    4  3123  1_0
    3  5333  322
    2  1356  6553  533
    111  4_6666  653
    +155  333332  2_1_0 //]
BEM[]
MEL_SEM[3 -3 0 0 0 -2 0 0 -2 4 3 2 0 -2 0 -3 3 -3 0 0 3 -3 0 0 0 -2 0 0 -2 4 3 2 0 -2 0 -3 3 -3 0 0 0 -2 0 3 -1 -4 2 2 -4 4 3 -3 0 0 0 -2 0 0 -2 4 3 2 0 -2 0 -3 3 -3 0 0 3 -3 0 0 0 -2 0 0 -2 4 3 2 0 -2 0 -3 3 -3 0 0 0 -2 0 3 -1 -4 2 2 -4 4 3 -3 0 0 0 -2 0 0 -2 4 3 2 0 -2 0 -3 3 -3 0 -4 0 0 5 4 0 0 0 0 -2 -3 8 -5 0 -3 0 0 0 0 -2 0 -2]
MEL_RAW[3  5333  322
    2  1356  6553  533
    3  5333  322
    2  1356  655
    3  5333  322
    4  3123  10
    3  5333  322
    2  1356  6553  533
    3  5333  322
    2  1356  655
    3  5333  322
    4  3123  10
    3  5333  322
    2  1356  6553  533
    111  46666  653
    +155  333332  210]
NO_REP[3532
    213565353
    3532
    213565
    3532
    4312310
    3532
    213565353
    3532
    213565
    3532
    4312310
    3532
    213565353
    14653
    +153210]
RTM[x  xxxx  xxx
    x  xxxx  xxxx  xxx
    x  xxxx  xxx
    x  xxxx  xxx
    x  xxxx  xxx
    x  xxxx  x_x
    x  xxxx  xxx
    x  xxxx  xxxx  xxx
    x  xxxx  xxx
    x  xxxx  xxx
    x  xxxx  xxx
    x  xxxx  x_x
    x  xxxx  xxx
    x  xxxx  xxxx  xxx
    xxx  x_xxxx  xxx
    xxx  xxxxxx  x_x_x]
SCL_DEG[123456+1]
SCL_SEM[2 2 1 2 2 3]

